X:18
T:Erre alá dörög az ég villámlik
S:https://zti.hungaricana.hu/en/2731/
L:1/4
K:Bb
G/>^F/G/A/ B/<A/B/c/ | d B A z |
G/<^F/G/A/ B/<A/B/c/ | d < B A z |
(3:2:2 d d2 B d | f/e/d/c/ d/B/ G |
G/>D/G/A/ B/B/c/A/ | B < G G z |
W: Erre alá dörög az ég villámlik
W: A dombai csárádba be világít
W: Ég a csárda, nincsen aki eloltsa
W: Fáj a szívem nincs ki megvígasztalja
W:
W: Erre alá dörög az ég villámlik
W: Fáj a szívem de kívülről nem látszik
W: Fáj a szivem, de kivülről nem látszik
W: Vad rózsafa halaványat virágzik
W:
W: Erre alá dörög az ég villámlik
W: Szalajd kislány selyem szoknyád megázik
W: Szalajd kislány selyem szoknyád megázik
W: Piros arcod halaványat virágzik
W:
W: Már minálunk új divatot most kezdnek
W:A legények házasodni nem mernek
W: Mert mind olyan a mostani menyecske
W: Szép az ura de még többet szeretne

K:Bb
